app/images/icons/money-icon.svg

<?xml version="1.0" encoding="UTF-8" standalone="no"?>
<svg width="76px" height="76px" viewBox="0 0 76 76" version="1.1" xmlns="http://www.w3.org/2000/svg" xmlns:xlink="http://www.w3.org/1999/xlink" xmlns:sketch="http://www.bohemiancoding.com/sketch/ns">
    <!-- Generator: Sketch 3.1 (8751) - http://www.bohemiancoding.com/sketch -->
    <title>money-icon</title>
    <desc>Created with Sketch.</desc>
    <defs></defs>
    <g id="Page-1" stroke="none" stroke-width="1" fill="none" fill-rule="evenodd" sketch:type="MSPage">
        <g id="money-icon" sketch:type="MSLayerGroup" fill="#0A0B09">
            <path d="M38,73.4654 C18.4426667,73.4654 2.53333333,57.5560667 2.53333333,38 C2.53333333,18.4414 18.4426667,2.53206667 38,2.53206667 C57.5573333,2.53206667 73.4666667,18.4414 73.4666667,38 C73.4666667,57.5560667 57.5573333,73.4654 38,73.4654 L38,73.4654 Z M38,0 C17.0493333,0 0,17.0480667 0,38 C0,58.9494 17.0493333,76 38,76 C58.9506667,76 76,58.9494 76,38 C76,17.0480667 58.9506667,0 38,0 L38,0 Z" id="Fill-2728" sketch:type="MSShapeGroup"></path>
            <path d="M45.6,27.8666667 C45.6,28.5633333 46.17,29.1346 46.8666667,29.1346 C47.5633333,29.1346 48.1333333,28.5633333 48.1333333,27.8666667 C48.1333333,23.3953333 45.0046667,20.2666667 40.5333333,20.2666667 C36.062,20.2666667 32.9333333,23.3953333 32.9333333,27.8666667 L32.9333333,35.4666667 L26.6,35.4666667 C25.9033333,35.4666667 25.3333333,36.0366667 25.3333333,36.7346 C25.3333333,37.43 25.9033333,38.0012667 26.6,38.0012667 L32.9333333,38.0012667 L32.9333333,41.8012667 C32.9333333,46.0686667 30.9446667,50.6666667 26.6,50.6666667 C25.9033333,50.6666667 25.3333333,51.2366667 25.3333333,51.9346 C25.3333333,52.63 25.9033333,53.2012667 26.6,53.2012667 L46.8666667,53.2012667 C47.5633333,53.2012667 48.1333333,52.63 48.1333333,51.9346 C48.1333333,51.2366667 47.5633333,50.6666667 46.8666667,50.6666667 L32.452,50.6666667 C34.4913333,48.4373333 35.4666667,45.0426667 35.4666667,41.8012667 L35.4666667,38.0012667 L41.8,38.0012667 C42.4966667,38.0012667 43.0666667,37.43 43.0666667,36.7346 C43.0666667,36.0366667 42.4966667,35.4666667 41.8,35.4666667 L35.4666667,35.4666667 L35.4666667,27.8666667 C35.4666667,24.7886667 37.4553333,22.8012667 40.5333333,22.8012667 C43.6113333,22.8012667 45.6,24.7886667 45.6,27.8666667 Z" id="Fill-2729" sketch:type="MSShapeGroup"></path>
        </g>
    </g>
</svg>

<svg width="76" height="76" viewBox="0 0 76 76" xmlns="http://www.w3.org/2000/svg">
    <desc>
        Created with Sketch.
    </desc>
    <g fill="#0A0B09">
        <path d="M38 73.465C18.443 73.465 2.533 57.555 2.533 38 2.533 18.44 18.443 2.532 38 2.532S73.467 18.442 73.467 38c0 19.556-15.91 35.465-35.467 35.465zM38 0C17.05 0 0 17.048 0 38c0 20.95 17.05 38 38 38s38-17.05 38-38C76 17.048 58.95 0 38 0z"/>
        <path d="M45.6 27.867c0 .696.57 1.268 1.267 1.268.696 0 1.266-.572 1.266-1.268 0-4.472-3.128-7.6-7.6-7.6-4.47 0-7.6 3.128-7.6 7.6v7.6H26.6c-.697 0-1.267.57-1.267 1.268 0 .695.57 1.266 1.267 1.266h6.333v3.8c0 4.27-1.988 8.867-6.333 8.867-.697 0-1.267.57-1.267 1.268 0 .695.57 1.266 1.267 1.266h20.267c.696 0 1.266-.57 1.266-1.265 0-.698-.57-1.268-1.266-1.268H32.452c2.04-2.23 3.015-5.624 3.015-8.866V38H41.8c.697 0 1.267-.57 1.267-1.265 0-.698-.57-1.268-1.267-1.268h-6.333v-7.6c0-3.078 1.988-5.066 5.066-5.066s5.067 1.99 5.067 5.067z"/>
    </g>
</svg>
